www/assets/icons/headset_off.svg

<svg width="24" height="24" viewBox="0 0 24 24" xmlns="http://www.w3.org/2000/svg" fill='currentColor'><path d="M12.365 3.64011C16.235 3.64011 19.365 6.77011 19.365 10.6401V12.6401H16.445L21.365 17.5601V10.6401C21.365 5.67011 17.335 1.64011 12.365 1.64011C10.415 1.64011 8.60499 2.26011 7.13499 3.32011L8.57499 4.76011C9.66499 4.05011 10.965 3.64011 12.365 3.64011ZM2.63499 1.36011L1.36499 2.64011L4.69499 5.96011C3.85499 7.32011 3.36499 8.93011 3.36499 10.6401V17.6401C3.36499 19.3001 4.70499 20.6401 6.36499 20.6401H9.36499V12.6401H5.36499V10.6401C5.36499 9.47011 5.65499 8.38011 6.15499 7.42011L15.365 16.6401V20.6401H18.365C18.665 20.6401 18.955 20.5801 19.225 20.5001L21.365 22.6401L22.635 21.3701L2.63499 1.36011Z"/></svg>

<svg xmlns="http://www.w3.org/2000/svg" width="24" height="24" viewBox="0 0 24 24" fill='currentColor'><path d="M12.365 3.64c3.87 0 7 3.13 7 7v2h-2.92l4.92 4.92v-6.92a9 9 0 0 0-9-9c-1.95 0-3.76.62-5.23 1.68l1.44 1.44a6.9 6.9 0 0 1 3.79-1.12m-9.73-2.28-1.27 1.28 3.33 3.32a8.9 8.9 0 0 0-1.33 4.68v7c0 1.66 1.34 3 3 3h3v-8h-4v-2c0-1.17.29-2.26.79-3.22l9.21 9.22v4h3c.3 0 .59-.06.86-.14l2.14 2.14 1.27-1.27z"/></svg>
